X: 10427
T: Donegal
R: barndance
M: 4/4
K: Dmajor
FG|A2 A2 f2 fe|de (3dcB A2 BA|GF GA B2 BA|GF GB AG FG|
A2 A2 f2 fe|de (3dcB A2 BA|GF GA BA Bc|d2 f2 d2:|
(3ABc|dc de f2 A2|dc de f2 A2|ed ef gA Bc|dc de f2 A2|
dc de f2 A2|dc de f2 A2|ed ef gA Bc|d2 f2 d2:|

